!!!OTL: 169. Das Fischen auf der See oder der Doppelkreis. / Dritte Art.
!!!ARE: Europa, Mitteleuropa, Deutschland, Mainz
!!!SCT: K2169B
!!!TXL: @@DE
!!!YEM: Copyright 1995, estate of Helmut Schaffrath.
**kern	**text
*clefG2	*
*M4/4	*
*met(c)	*
*k[b-]	*
*F:	*
{4f	Dort
=1	=1
4cc	un-
4cc	-ten
4dd	in
4dd	der
=2	=2
4cc	grü-
4cc	-nen
4a	See,
4r}	.
=3	=3
{4cc	wo
4cc	das
4dd	Fiſch-
4dd	-lein
=4	=4
2cc	ſchwimmet,
4a	.
4r}	.
=5	=5
{4cc	freu-
4cc	-et
4dd	ſich
4dd	mein
=6	=6
4cc	gan-
4cc	-ʒes
4a	Herʒ,
4r}	.
=7	=7
{4cc	ju-
4cc	-belt
4dd	auf
4dd	und
=8	=8
2cc	ſin-
4a	-get
4r}	.
=9	=9
{4cc	Jh-
4a	-re
4cc	bih-
4a	-re,
=10	=10
4cc	wir
4ff	ſind
4dd	hier
8r}	.
{8dd	der
=11	=11
4cc	Goldſiſch,
8a	.
8dd	der
4cc	Goldfiſch,
8a	.
8a	der
=12	=12
4cc	fol-
4dd	-ge
4cc;}	mir!
==	==
!!!AGN: Kinder - Lied, Reigen, Tanz - Spiel
!!!ONB: ESAC (Essen Associative Code) Database: KINDER
!!!AMT: simple quadruple
!!!AIN: vox
!!!EED: Helmut Schaffrath
!!!EEV: 1.0
!!Umgegend von Mainz 1895.
!!!GTL: Zweites Buch. Kinderspiel: 2. Reigen und Tanzspiele. / C. Ringelreihen mit Aufloesen des Kreises und Haschenspiel.
!!!URL-scan: https://archive.org/details/DeutschesKinderliedUndKinderspiel/page/468/mode/1up
!!!ENC: Anna Maria Matuszewska
!!!EEV: 2024/03/09
*-	*-
